**kern	**kern	**dynam
*part1	*part1	*part1
*staff2	*staff1	*
*I"Piano	*	*
*clefF4	*clefG2	*
*k[f#c#g#d#a#]	*k[f#c#g#d#a#]	*
=1	=1	=1
*^	*	*
4BBB	2.BBB	4r	.
4FF#	.	(8BL 8f#	.
.	.	8F#J<)	.
*	*^	*	*
4BB	.	8F#/	(8d#L	.
*	*v	*v	*	*
.	.	8D#J<)	.
=	=	=	=
4BBB	2.BBB	4r	p
4FF#	.	(8D#L< 8B<	.
.	.	8BBJ<)	.
4GGn	.	4r	.
=	=	=	=
(4BBB	2.BBB	4r	.
4FF#	.	(8D#L< 8B<	.
.	.	8BBJ<)	.
4GGn)	.	4r	.
=	=	=	=
(4BBB	2.BBB	4r	.
4FF#	.	(8D#L< 8B<	.
.	.	8BBJ<)	.
4GGn)	.	4r	.
=	=	=	=
(4BBB	2.BBB	4r	.
4FF#	.	(8D#L< 8B<	.
.	.	8BBJ<)	.
4GGn)	.	4r	.
*v	*v	*	*
=	=	=
(4FF#	4r	.
4BBB)	4r	.
*	*clefF4	*
4r	4BB 4D#	.
=	=	=
(4FF#	4r	.
4BBB)	4r	.
4r	4BB 4D#	.
=	=	=
4BBB	2.r	.
4r	.	.
4r	.	.
=	=	=
4FFF# 4FF#	2.r	pp
4r	.	.
4r	.	.
=:|!	=:|!	=:|!
4BBB	2.r	ppp
4r	.	.
4r	.	.
==	==	==
*-	*-	*-
!!!system-decoration: {(s1,s2)}
!!!RDF**kern: < = below
